X: 78
T:Austin Barret's
M:6/8
L:1/8
R:Jig
K:G
|:A2B cBA|eAB cBA|GFG EGG|DGG EFG|
A2B cBA|e2d efg|age dBG|ABAA3:|
|:a3age|dBdg3|gag gfe|dBA GFG|
EGG DGG|EGG ABc|Bed BAG|ABAA3:|
|:A3gAf|A3ged|G3eGd|G3edB|
A3gAf|A3efg|age dBG|ABAA3:|
